svgs/duotone/sword-laser.svg

<svg xmlns="http://www.w3.org/2000/svg" viewBox="0 0 512 512"><!--! Font Awesome Pro 6.3.0 by @fontawesome - https://fontawesome.com License - https://fontawesome.com/license (Commercial License) Copyright 2023 Fonticons, Inc. --><defs><style>.fa-secondary{opacity:.4}</style></defs><path class="fa-primary" d="M9.375 412.1c-12.5 12.5-12.5 32.75 0 45.25l45.25 45.25c12.5 12.5 32.75 12.5 45.25 0l79.12-79.12l-90.5-90.5L9.375 412.1zM105.5 327.3l79.25 79.25l22.62-22.62L128.1 304.6L105.5 327.3zM195.1 236.8c-3.125-3.125-8.125-3.125-11.25 0L173.4 248.1c-3.125 3.125-3.125 8.125 0 11.25l79.25 79.25c3.125 3.125 8.125 3.125 11.25 0l11.38-11.38c3.125-3.125 3.125-8.123 0-11.25L195.1 236.8zM139.5 293.4l79.12 79.12l22.62-22.62L162.1 270.8L139.5 293.4z"/><path class="fa-secondary" d="M505.6 40.27L263.1 303.9L208.1 248.9l263.6-242.5c9.375-8.75 24.12-8.5 33.25 .625C514.1 16.14 514.4 30.89 505.6 40.27z"/></svg>

<svg xmlns="http://www.w3.org/2000/svg" viewBox="0 0 512 512"><!-- Font Awesome Pro 6.0.0-alpha2 by @fontawesome - https://fontawesome.com License - https://fontawesome.com/license (Commercial License) --><defs><style>.fa-secondary{opacity:.4}</style></defs><path d="M505.494 40.268L263.01 303.889L208 248.879L471.621 6.395C480.996 -2.355 495.744 -2.105 504.869 7.02C513.994 16.143 514.244 30.893 505.494 40.268Z" class="fa-secondary"/><path d="M9.375 412.129C-3.125 424.628 -3.125 444.878 9.375 457.378L54.623 502.626C67.123 515.126 87.371 515.126 99.871 502.626L178.992 423.503L88.496 333.006L9.375 412.129ZM105.496 327.256L184.742 406.504L207.367 383.879L128.119 304.633L105.496 327.256ZM195.992 236.76C192.867 233.635 187.867 233.635 184.742 236.76L173.369 248.135C170.244 251.26 170.244 256.26 173.369 259.385L252.615 338.631C255.74 341.756 260.74 341.756 263.865 338.631L275.24 327.256C278.365 324.131 278.365 319.133 275.24 316.008L195.992 236.76ZM139.494 293.383L218.617 372.504L241.24 349.881L162.119 270.76L139.494 293.383Z" class="fa-primary"/></svg>
